src/next/cmd/bg/sc_strikeout.svg

<svg height="16" viewBox="0 0 16 16" width="16" xmlns="http://www.w3.org/2000/svg" xmlns:xlink="http://www.w3.org/1999/xlink"><linearGradient id="a" gradientUnits="userSpaceOnUse" x1="10.895411" x2="10.895411" y1="11.998976" y2="4.285821"><stop offset="0" stop-color="#555"/><stop offset="1"/></linearGradient>








/&amp;amp;amp;amp;amp;amp;gt;<rect fill="#010101" height="1" rx=".223028" ry=".286878" stroke-width=".125" width="16" y="7"/><path d="m4.5703125 4.0019531-.8457031 1.9980469h.5253906l.1308594-.3144531.1328125.3144531h1.1699219l-.875-1.9980469zm4.5566406.140625v.2265625c.4509229.039555.7272362.127233.8300781.2617188.1107528.1265748.1660158.4391115.1660158.9375v.4316406h1.210937v-1.0136719c0-.2689715.087681-.4042969.261719-.4042969h1.244141c.664518 0 1.108572.0991021 1.330078.296875.206942.1712626.371848.5636702.507812 1.1210938h.328125l-.064453-1.8574219zm-6.6738281 4.8574219-.3515625.828125c-.3639027.862291-.6287924 1.399686-.7949219 1.613281-.1582186.205684-.38307683.316209-.67578122.332032v.224609h2.34960942v-.224609c-.5379432-.000001-.8066407-.161981-.8066407-.486329 0-.142396.030463-.296761.09375-.46289l.546875-1.3886721h3.109375l.4863281 1.1386721c.1503077.34017.2246094.605059.2246094.794922 0 .150307-.059071.253217-.1777344.308593-.1186639.05538-.3359066.087793-.6523437.095704v.224609h3.0253906v-.224609c-.2689716-.015823-.465222-.082508-.5917969-.201172-.1265748-.118664-.2867001-.396931-.4765624-.832032l-.7617188-1.740234zm7.669922 0v1.705078c0 .42719-.055261.699695-.1660158.81836-.110753.118662-.3870662.202533-.8300781.25v.224609h3.1328129c.268971 0 .530053-.015235.783203-.046875.261061-.03164.537374-.09833.830078-.201172.292705-.102842.542363-.23436.748047-.392578.213595-.158219.390806-.375461.533203-.652344.142397-.284793.214844-.608753.214844-.9726561 0-.221506-.024796-.4311333-.072266-.6289063-.007809-.0338342-.024763-.0692605-.035156-.1035156h-1.28711c.062258.1994777.09961.4169809.09961.6621094 0 1.2657486-.779438 1.8984376-2.337891 1.8984376-.158218 0-.264936-.028605-.320312-.083985-.05538-.055379-.082032-.162093-.082032-.320312v-2.15625z" fill="url(#a)"/></svg>

<?xml version="1.0" encoding="UTF-8" standalone="no"?>
<svg
   xmlns:dc="http://purl.org/dc/elements/1.1/"
   xmlns:cc="http://creativecommons.org/ns#"
   xmlns:rdf="http://www.w3.org/1999/02/22-rdf-syntax-ns#"
   xmlns:svg="http://www.w3.org/2000/svg"
   xmlns="http://www.w3.org/2000/svg"
   xmlns:xlink="http://www.w3.org/1999/xlink"
   xmlns:sodipodi="http://sodipodi.sourceforge.net/DTD/sodipodi-0.dtd"
   xmlns:inkscape="http://www.inkscape.org/namespaces/inkscape"
   height="16"
   viewBox="0 0 16 16"
   width="16"
   version="1.1"
   id="svg20"
   sodipodi:docname="sc_strikeout.svg"
   inkscape:version="0.92.3 (2405546, 2018-03-11)"
   inkscape:export-filename="/home/rizmut/Dokumen/Rizmut/Github/libreoffice-style-karasa-jaga/build/next/cmd/bg/sc_strikeout.png"
   inkscape:export-xdpi="96"
   inkscape:export-ydpi="96"><metadata
   id="metadata26">
  <rdf:RDF>
    <cc:Work
       rdf:about="">
      <dc:format>image/svg+xml</dc:format>
      <dc:type
         rdf:resource="http://purl.org/dc/dcmitype/StillImage" />
      <dc:title></dc:title>
    </cc:Work>
  </rdf:RDF>
</metadata>
<defs
   id="defs24">
  <linearGradient
     inkscape:collect="always"
     xlink:href="#a-3"
     id="linearGradient911"
     gradientUnits="userSpaceOnUse"
     gradientTransform="matrix(0.29665981,0,0,0.29665981,10.005432,6.9557593)"
     x1="3"
     y1="17"
     x2="3"
     y2="-9" />
  <linearGradient
     id="a-3"
     gradientUnits="userSpaceOnUse"
     x1="74.327759"
     x2="78.138741"
     y1="108.93148"
     y2="21.278833">
    <stop
       offset="0"
       stop-color="#555"
       id="stop2-6" />
    <stop
       offset="1"
       id="stop4-7" />
  </linearGradient>
</defs>
<sodipodi:namedview
   pagecolor="#ffffff"
   bordercolor="#666666"
   borderopacity="1"
   objecttolerance="10"
   gridtolerance="10"
   guidetolerance="10"
   inkscape:pageopacity="0"
   inkscape:pageshadow="2"
   inkscape:window-width="1366"
   inkscape:window-height="714"
   id="namedview22"
   showgrid="true"
   inkscape:zoom="29.5"
   inkscape:cx="8.6163548"
   inkscape:cy="9.6164551"
   inkscape:window-x="0"
   inkscape:window-y="28"
   inkscape:window-maximized="1"
   inkscape:current-layer="svg20">
  <inkscape:grid
     type="xygrid"
     id="grid833" />
</sodipodi:namedview>
<linearGradient
   id="a"
   gradientUnits="userSpaceOnUse"
   x1="65.491482"
   x2="65.491482"
   y1="126.690165"
   y2="6.690165"
   gradientTransform="scale(0.125)">
  <stop
     offset="0"
     stop-color="#555"
     id="stop2" />
  <stop
     offset="1"
     id="stop4" />
</linearGradient>
<linearGradient
   id="b"
   gradientUnits="userSpaceOnUse"
   x1="6.35"
   x2="24.439852"
   y1="0"
   y2="11.779642"
   gradientTransform="scale(0.125)">
  <stop
     offset="0"
     stop-color="#3b3e22"
     id="stop7" />
  <stop
     offset="1"
     stop-color="#454545"
     stop-opacity="0"
     id="stop9" />
</linearGradient>








/&amp;amp;amp;amp;gt;<rect
   style="fill:#010101;stroke-width:0.125"
   x="0"
   id="rect12"
   y="7"
   width="16"
   ry="0.28687751"
   rx="0.2230275"
   height="1" />
<path
   style="font-style:normal;font-variant:normal;font-weight:normal;font-stretch:normal;font-size:medium;line-height:1.25;font-family:FreeSerif;-inkscape-font-specification:FreeSerif;letter-spacing:0px;word-spacing:0px;fill:url(#linearGradient911);fill-opacity:1;stroke:none;stroke-width:0.2966598"
   d="M 4.5703125 4.0019531 L 3.7246094 6 L 4.25 6 L 4.3808594 5.6855469 L 4.5136719 6 L 5.6835938 6 L 4.8085938 4.0019531 L 4.5703125 4.0019531 z M 9.1269531 4.1425781 L 9.1269531 4.3691406 C 9.577876 4.4086956 9.8541893 4.4963736 9.9570312 4.6308594 C 10.067784 4.7574342 10.123047 5.0699709 10.123047 5.5683594 L 10.123047 6 L 11.333984 6 L 11.333984 4.9863281 C 11.333984 4.7173566 11.421665 4.5820312 11.595703 4.5820312 L 12.839844 4.5820312 C 13.504362 4.5820312 13.948416 4.6811333 14.169922 4.8789062 C 14.376864 5.0501688 14.54177 5.4425764 14.677734 6 L 15.005859 6 L 14.941406 4.1425781 L 9.1269531 4.1425781 z M 2.453125 9 L 2.1015625 9.828125 C 1.7376598 10.690416 1.4727701 11.227811 1.3066406 11.441406 C 1.148422 11.64709 0.92356377 11.757615 0.63085938 11.773438 L 0.63085938 11.998047 L 2.9804688 11.998047 L 2.9804688 11.773438 C 2.4425256 11.773437 2.1738281 11.611457 2.1738281 11.287109 C 2.1738281 11.144713 2.2042911 10.990348 2.2675781 10.824219 L 2.8144531 9.4355469 L 5.9238281 9.4355469 L 6.4101562 10.574219 C 6.5604639 10.914389 6.6347656 11.179278 6.6347656 11.369141 C 6.6347656 11.519448 6.5756946 11.622358 6.4570312 11.677734 C 6.3383673 11.733114 6.1211246 11.765527 5.8046875 11.773438 L 5.8046875 11.998047 L 8.8300781 11.998047 L 8.8300781 11.773438 C 8.5611065 11.757615 8.3648561 11.69093 8.2382812 11.572266 C 8.1117064 11.453602 7.9515811 11.175335 7.7617188 10.740234 L 7 9 L 2.453125 9 z M 10.123047 9 L 10.123047 10.705078 C 10.123047 11.132268 10.067786 11.404773 9.9570312 11.523438 C 9.8462782 11.6421 9.569965 11.725971 9.1269531 11.773438 L 9.1269531 11.998047 L 12.259766 11.998047 C 12.528737 11.998047 12.789819 11.982812 13.042969 11.951172 C 13.30403 11.919532 13.580343 11.852842 13.873047 11.75 C 14.165752 11.647158 14.41541 11.51564 14.621094 11.357422 C 14.834689 11.199203 15.0119 10.981961 15.154297 10.705078 C 15.296694 10.420285 15.369141 10.096325 15.369141 9.7324219 C 15.369141 9.5109159 15.344345 9.3012886 15.296875 9.1035156 C 15.289066 9.0696814 15.272112 9.0342551 15.261719 9 L 13.974609 9 C 14.036867 9.1994777 14.074219 9.4169809 14.074219 9.6621094 C 14.074219 10.927858 13.294781 11.560547 11.736328 11.560547 C 11.57811 11.560547 11.471392 11.531942 11.416016 11.476562 C 11.360636 11.421183 11.333984 11.314469 11.333984 11.15625 L 11.333984 9 L 10.123047 9 z "
   id="path898" />
</svg>
